Libraries/Atlas.Resources/Icons/svg/enter.svg

<?xml version="1.0" encoding="UTF-8" standalone="no" ?>
<!DOCTYPE svg PUBLIC "-//W3C//DTD SVG 1.1//EN" "http://www.w3.org/Graphics/SVG/1.1/DTD/svg11.dtd">
<svg xmlns="http://www.w3.org/2000/svg" xmlns:xlink="http://www.w3.org/1999/xlink" version="1.1" width="24" height="24" viewBox="0 0 490 490" xml:space="preserve">
<desc>Created with Fabric.js 4.6.0</desc>
<defs>
</defs>
<g transform="matrix(0.73 0 0 0.73 245 245)" id="8BpuW_dUeDFp4vpEqZA_W"  >
<g style="" vector-effect="non-scaling-stroke"   >
		<g transform="matrix(1.33 0 0 1.33 -99.42 0.44)" id="8PCpyHgFqoWzmHiI350o-"  >
<path style="stroke: none; stroke-width: 1; stroke-dasharray: none; stroke-linecap: butt; stroke-dashoffset: 0; stroke-linejoin: miter; stroke-miterlimit: 4; fill: rgb(0,0,0); fill-rule: nonzero; opacity: 1;" vector-effect="non-scaling-stroke"  transform=" translate(-170.67, -235)" d="M 325.332031 251 L 16 251 C 7.167968999999999 251 0 243.832031 0 235 C 0 226.167969 7.167969 219 16 219 L 325.332031 219 C 334.16406199999994 219 341.332031 226.167969 341.332031 235 C 341.332031 243.832031 334.16406199999994 251 325.332031 251 z M 325.332031 251" stroke-linecap="round" />
</g>
		<g transform="matrix(1.33 0 0 1.33 49.72 0.42)" id="cek1oX6RsakKSnO2DJQl9"  >
<path style="stroke: none; stroke-width: 1; stroke-dasharray: none; stroke-linecap: butt; stroke-dashoffset: 0; stroke-linejoin: miter; stroke-miterlimit: 4; fill: rgb(0,0,0); fill-rule: nonzero; opacity: 1;" vector-effect="non-scaling-stroke"  transform=" translate(-282.68, -234.98)" d="M 240 336.332031 C 235.902344 336.332031 231.808594 334.77734399999997 228.691406 331.640625 C 222.441406 325.390625 222.441406 315.257812 228.691406 309.00390600000003 L 302.71875 234.98046900000003 L 228.691406 160.95312500000003 C 222.441406 154.70312500000003 222.441406 144.56640600000003 228.691406 138.31640600000003 C 234.945312 132.06640600000003 245.078125 132.06640600000003 251.328125 138.31640600000003 L 336.66015600000003 223.65234400000003 C 342.91015600000003 229.90234400000003 342.91015600000003 240.03515600000003 336.66015600000003 246.28515600000003 L 251.32812500000003 331.61718800000006 C 248.19140600000003 334.777344 244.09765600000003 336.33203100000003 240.00000000000003 336.33203100000003 z M 240 336.332031" stroke-linecap="round" />
</g>
		<g transform="matrix(1.33 0 0 1.33 24.28 0.44)" id="pn1ePfHdAA4n1Jx9jbhv2"  >
<path style="stroke: none; stroke-width: 1; stroke-dasharray: none; stroke-linecap: butt; stroke-dashoffset: 0; stroke-linejoin: miter; stroke-miterlimit: 4; fill: rgb(0,0,0); fill-rule: nonzero; opacity: 1;" vector-effect="non-scaling-stroke"  transform=" translate(-263.57, -235)" d="M 256 469.667969 C 158.910156 469.667969 73.195312 411.25781200000006 37.589844 320.84375 C 34.347656 312.65234399999997 38.398438 303.351562 46.613281 300.109375 C 54.804688 296.910156 64.128906 300.898438 67.371094 309.15625 C 98.113281 387.21484399999997 172.160156 437.66796899999997 256 437.66796899999997 C 367.742188 437.66796899999997 458.66796899999997 346.74218799999994 458.66796899999997 234.99999999999997 C 458.66796899999997 123.257812 367.74218799999994 32.33203099999997 255.99999999999997 32.33203099999997 C 172.16015599999997 32.33203099999997 98.11328099999997 82.78515599999997 67.37109399999997 160.84374999999997 C 64.10546899999997 169.10156199999997 54.80468799999997 173.08984399999997 46.61328099999997 169.89062499999997 C 38.39843799999997 166.64843799999997 34.34765599999997 157.34765599999997 37.58984399999997 149.15624999999997 C 73.19531199999997 58.74218799999997 158.91015599999997 0.3320309999999722 255.99999999999997 0.3320309999999722 C 385.38671899999997 0.3320309999999722 490.66796899999997 105.61328099999997 490.66796899999997 234.99999999999997 C 490.66796899999997 364.38671899999997 385.38671899999997 469.66796899999997 255.99999999999997 469.66796899999997 z M 256 469.667969" stroke-linecap="round" />
</g>
</g>
</g>
</svg>

<svg height="490pt" viewBox="0 -10 490.66667 490" width="490pt" xmlns="http://www.w3.org/2000/svg"><path d="m325.332031 251h-309.332031c-8.832031 0-16-7.167969-16-16s7.167969-16 16-16h309.332031c8.832031 0 16 7.167969 16 16s-7.167969 16-16 16zm0 0"/><path d="m240 336.332031c-4.097656 0-8.191406-1.554687-11.308594-4.691406-6.25-6.25-6.25-16.382813 0-22.636719l74.027344-74.023437-74.027344-74.027344c-6.25-6.25-6.25-16.386719 0-22.636719 6.253906-6.25 16.386719-6.25 22.636719 0l85.332031 85.335938c6.25 6.25 6.25 16.382812 0 22.632812l-85.332031 85.332032c-3.136719 3.160156-7.230469 4.714843-11.328125 4.714843zm0 0"/><path d="m256 469.667969c-97.089844 0-182.804688-58.410157-218.410156-148.824219-3.242188-8.191406.808594-17.492188 9.023437-20.734375 8.191407-3.199219 17.515625.789063 20.757813 9.046875 30.742187 78.058594 104.789062 128.511719 188.628906 128.511719 111.742188 0 202.667969-90.925781 202.667969-202.667969s-90.925781-202.667969-202.667969-202.667969c-83.839844 0-157.886719 50.453125-188.628906 128.511719-3.265625 8.257812-12.566406 12.246094-20.757813 9.046875-8.214843-3.242187-12.265625-12.542969-9.023437-20.734375 35.605468-90.414062 121.320312-148.824219 218.410156-148.824219 129.386719 0 234.667969 105.28125 234.667969 234.667969s-105.28125 234.667969-234.667969 234.667969zm0 0"/></svg>
